public/icons/dog-psia-szkolka-hover.svg

<?xml version="1.0" encoding="UTF-8" standalone="no"?>
<svg
   width="161.24596"
   zoomAndPan="magnify"
   viewBox="0 0 120.86996 180.05235"
   height="240.06979"
   preserveAspectRatio="xMidYMid"
   version="1.0"
   id="svg2"
   sodipodi:docname="dog-psia-szkolka-hover.svg"
   inkscape:version="1.4 (86a8ad7, 2024-10-11)"
   xmlns:inkscape="http://www.inkscape.org/namespaces/inkscape"
   xmlns:sodipodi="http://sodipodi.sourceforge.net/DTD/sodipodi-0.dtd"
   xmlns="http://www.w3.org/2000/svg"
   xmlns:svg="http://www.w3.org/2000/svg">
  <sodipodi:namedview
     id="namedview2"
     pagecolor="#ffffff"
     bordercolor="#000000"
     borderopacity="0.25"
     inkscape:showpageshadow="2"
     inkscape:pageopacity="0.0"
     inkscape:pagecheckerboard="0"
     inkscape:deskcolor="#d1d1d1"
     inkscape:zoom="3.89"
     inkscape:cx="91.25964"
     inkscape:cy="119.15167"
     inkscape:window-width="2560"
     inkscape:window-height="1369"
     inkscape:window-x="-8"
     inkscape:window-y="-8"
     inkscape:window-maximized="1"
     inkscape:current-layer="svg2" />
  <defs
     id="defs1">
    <clipPath
       id="afe3e955ff">
      <path
         d="M 43.773438,23 H 165 V 203.95312 H 43.773438 Z m 0,0"
         clip-rule="nonzero"
         id="path1" />
    </clipPath>
  </defs>
  <g
     clip-path="url(#afe3e955ff)"
     id="g2"
     transform="translate(-43.922468,-23.123461)">
    <path
       fill="#f5ded2"
       d="m 126.01563,190.65625 c -1.19922,2.66797 -1.12891,5.70312 -1.28125,8.52734 -0.082,1.51563 -0.17188,2.81641 1.51953,3.2461 1.11718,0.27734 2.33984,-0.14063 3.10156,-0.91016 1.08984,2.23828 4.98047,2.16406 5.83984,0.043 0.98828,1.00781 1.78516,1.58984 3.39844,0.99609 0.65625,-0.24218 1.42578,-0.72656 1.80078,-1.29687 1.03125,0.30469 2.31641,0.0195 2.90625,-0.85547 0.41406,-0.625 0.4375,-2.08594 0.28516,-3.19922 0.64843,0.10156 1.4414,-0.10156 2.02734,-0.48437 3.29688,1.05859 3.35156,-3.57422 2.84766,-5.46875 -0.57422,-2.16407 -2.8086,-3.10547 -3.76172,-5.06641 1.63281,-0.66797 2.46875,-2.94531 2.60547,-4.58594 2.90625,-0.75 4.82812,-1.57031 6.90234,-3.82812 1.99609,-2.16797 2.47656,-4.42578 3.17578,-7.07422 0.71485,-2.71094 2.30078,-5.40625 1.71094,-8.29688 -0.53125,-2.61718 -2.58203,-4.35937 -3.79297,-6.67187 -0.90234,-1.71875 -1.44922,-5.40235 -3.21875,-6.63281 0.0781,-1.50391 -0.92969,-2.92969 -2.53125,-3.23438 0.0352,-0.42187 0.0508,-0.85937 0.0508,-1.3125 -0.0117,-5.94922 -0.1875,-11.83984 -0.1875,-17.84765 0,-2.97657 -0.39453,-5.34766 -1.71094,-7.94141 -0.33984,-0.67578 -0.69531,-1.35938 -1.04296,-2.05469 0.53515,-3.25781 0.64843,-6.41015 0.47656,-9.84375 -0.27344,-5.69922 -2.41016,-10.562499 -3.5625,-16.085936 -0.54688,-2.613282 -0.85938,-5.574219 -1.89453,-8.074219 -0.75391,-1.824219 -1.86719,-2.808594 -2.46875,-4.261719 1.43359,-3.703125 1.21093,-7.339844 1.25,-11.3125 1.30468,-2.605468 1.58593,-5.199218 1.93359,-8.582031 0.29688,-2.925781 2.26563,-6.082031 3.89063,-8.769531 1.01171,-0.570313 1.99609,-1.226563 2.9375,-1.515625 1.27734,-0.386719 3.35937,-0.96875 5.03125,-1.023438 -0.23438,1.039063 0.10156,1.964844 0.85546,2.878907 0.88672,1.074218 2.04688,1.6875 2.91016,2.796874 0.70313,0.90625 1.10156,2.023438 1.80078,2.96875 1.48047,2.019532 4.99219,4.519532 4.97656,0.316407 -0.0117,-2.492188 -1.73828,-4.667969 -2.80468,-6.847657 -0.55469,-1.136718 -1.2461,-3.207031 -2.1211,-4.722656 -0.54687,-1.652344 -1.27343,-3.253906 -2.42578,-4.480468 -1.83594,-1.949219 -5.13672,-2.960938 -7.51172,-4.152344 -1.90234,-1.34375 -3.44531,-3.054688 -5.30859,-4.449219 -4.72266,-3.542969 -9.30078,-6.078125 -15.14063,-6.902344 -4.07812,-0.578125 -8.02734,-0.324219 -11.92578,0.441407 -0.74609,-2.007813 -4.14453,-2.542969 -6.25781,-1.289063 -0.8164,0.484375 -1.61328,1.234375 -2.35547,2.105469 -2.51172,1.832031 -7.36328,2.570312 -8.64843,5.605468 -0.851568,2 1.40625,6.976563 3.90234,8.320313 -0.13672,1.90625 0.16797,4.371094 1.78516,2.351563 0.58593,-0.730469 1.28906,-2.097657 1.76171,-3.328126 0.65625,2.789063 -0.85937,5.964844 -0.85546,8.875 0.004,2.738282 0.53125,4.941407 1.08984,7.289063 -0.63281,1.90625 -1.57422,3.796875 -2.41406,5.515625 -1.32813,2.730469 -1.83203,4.527344 -1.27735,6.929688 -2.0039,0.351562 -4.38281,1.3125 -5.324216,1.765624 -2.242188,1.082032 -3.996094,2.808594 -5.59375,4.605469 -3.457032,3.886719 -6.300782,8.316407 -9.972656,11.984375 -0.261719,0.261719 -0.546876,0.515625 -0.84375,0.757813 -1.207032,-1.246094 -2.164063,-3.453125 -2.765626,-4.808594 -1.15625,-2.617187 -1.425781,-5.371094 -1.566406,-8.257813 -0.273437,-5.800781 -1.433594,-10.019531 -4.699218,-14.820312 -1.449219,-2.125 -3.351563,-3.347656 -5.316407,-5.0625 -2.007812,-1.742188 -3.5625,-3.523438 -5.746093,-4.949219 -4.476563,-2.9375 -10.597657,-4.3125 -15.230469,-0.632812 -2.042969,1.621093 -3.40625,4.085937 -3.367188,6.535156 0.04297,2.945313 2.371094,3.484375 4.832031,3.148437 1.527344,3.003907 5.492188,2.707032 8.117188,0.582032 1.945312,1.238281 3.0625,4.523437 4.539062,6.578125 -0.773437,1.753906 0.820313,3.820312 2.441407,5.363281 -0.01953,2.414062 0.0078,4.558594 1.09375,6.730469 1.3125,2.617187 2.011719,4.695312 2.316406,7.527343 0.3125,2.902344 0.421875,5.867188 0.726563,8.699219 0.15625,1.414063 0.0625,2.824219 0.230468,4.28125 0.160156,1.355469 0.78125,2.589849 0.996094,3.929689 0.417969,2.64062 -0.703125,6.19531 1.140625,8.46875 1.757813,2.16797 4.761719,2.33203 7.167969,1.84375 5.605468,-1.12109 11.378906,-2.47266 17.078125,-1.21875 0.03516,0.008 0.07031,0.0156 0.101562,0.0273 0.726563,1.76172 0.871094,4.32422 1.003907,5.73828 0.273437,2.94141 -0.0078,5.78516 -0.160157,8.60938 -0.304687,5.80078 0.859375,11.59375 1.714844,17.13672 0.417969,2.67578 0.953125,4.95312 1.992187,7.08203 -4.207031,1.41406 -8.976562,6.11719 -9.574218,9.6875 -0.988282,5.89844 1.195312,10.3125 4.128906,15.14453 2.015625,3.32031 4.78125,6.92969 8.73047,8.44922 -2.17578,0.39062 -4.460939,0.53906 -6.269532,-0.46094 -1.921876,-1.07031 -4.316407,-1.87109 -5.265626,1.03516 -1.332031,4.08203 6.347657,4.82422 10.874998,5.08593 -1.61718,1.39063 -2.515622,4.10157 -2.335935,5.90625 0.160156,1.60547 2.687505,4.45313 4.195315,2.71094 1.30078,1.60156 4.3789,1.67969 5.375,0.125 2.64844,2.04297 5.20312,-1.80859 6.90234,-3.23828 1.51563,-1.28125 6.19531,-1.47656 6.06641,-3.91016 0.88281,1.16797 2.71094,1.71875 3.99219,1.01563 z m 0,0"
       fill-opacity="1"
       fill-rule="nonzero"
       id="path2" />
  </g>
</svg>

<svg xmlns="http://www.w3.org/2000/svg" xmlns:xlink="http://www.w3.org/1999/xlink" width="300" zoomAndPan="magnify" viewBox="0 0 224.87999 225" height="300" preserveAspectRatio="xMidYMid meet" version="1.0"><defs><clipPath id="afe3e955ff"><path d="M 43.773438 23 L 165 23 L 165 203.953125 L 43.773438 203.953125 Z M 43.773438 23 " clip-rule="nonzero"/></clipPath></defs><g clip-path="url(#afe3e955ff)"><path fill="#f5ded2" d="M 126.015625 190.65625 C 124.816406 193.324219 124.886719 196.359375 124.734375 199.183594 C 124.652344 200.699219 124.5625 202 126.253906 202.429688 C 127.371094 202.707031 128.59375 202.289062 129.355469 201.519531 C 130.445312 203.757812 134.335938 203.683594 135.195312 201.5625 C 136.183594 202.570312 136.980469 203.152344 138.59375 202.558594 C 139.25 202.316406 140.019531 201.832031 140.394531 201.261719 C 141.425781 201.566406 142.710938 201.28125 143.300781 200.40625 C 143.714844 199.78125 143.738281 198.320312 143.585938 197.207031 C 144.234375 197.308594 145.027344 197.105469 145.613281 196.722656 C 148.910156 197.78125 148.964844 193.148438 148.460938 191.253906 C 147.886719 189.089844 145.652344 188.148438 144.699219 186.1875 C 146.332031 185.519531 147.167969 183.242188 147.304688 181.601562 C 150.210938 180.851562 152.132812 180.03125 154.207031 177.773438 C 156.203125 175.605469 156.683594 173.347656 157.382812 170.699219 C 158.097656 167.988281 159.683594 165.292969 159.09375 162.402344 C 158.5625 159.785156 156.511719 158.042969 155.300781 155.730469 C 154.398438 154.011719 153.851562 150.328125 152.082031 149.097656 C 152.160156 147.59375 151.152344 146.167969 149.550781 145.863281 C 149.585938 145.441406 149.601562 145.003906 149.601562 144.550781 C 149.589844 138.601562 149.414062 132.710938 149.414062 126.703125 C 149.414062 123.726562 149.019531 121.355469 147.703125 118.761719 C 147.363281 118.085938 147.007812 117.402344 146.660156 116.707031 C 147.195312 113.449219 147.308594 110.296875 147.136719 106.863281 C 146.863281 101.164062 144.726562 96.300781 143.574219 90.777344 C 143.027344 88.164062 142.714844 85.203125 141.679688 82.703125 C 140.925781 80.878906 139.8125 79.894531 139.210938 78.441406 C 140.644531 74.738281 140.421875 71.101562 140.460938 67.128906 C 141.765625 64.523438 142.046875 61.929688 142.394531 58.546875 C 142.691406 55.621094 144.660156 52.464844 146.285156 49.777344 C 147.296875 49.207031 148.28125 48.550781 149.222656 48.261719 C 150.5 47.875 152.582031 47.292969 154.253906 47.238281 C 154.019531 48.277344 154.355469 49.203125 155.109375 50.117188 C 155.996094 51.191406 157.15625 51.804688 158.019531 52.914062 C 158.722656 53.820312 159.121094 54.9375 159.820312 55.882812 C 161.300781 57.902344 164.8125 60.402344 164.796875 56.199219 C 164.785156 53.707031 163.058594 51.53125 161.992188 49.351562 C 161.4375 48.214844 160.746094 46.144531 159.871094 44.628906 C 159.324219 42.976562 158.597656 41.375 157.445312 40.148438 C 155.609375 38.199219 152.308594 37.1875 149.933594 35.996094 C 148.03125 34.652344 146.488281 32.941406 144.625 31.546875 C 139.902344 28.003906 135.324219 25.46875 129.484375 24.644531 C 125.40625 24.066406 121.457031 24.320312 117.558594 25.085938 C 116.8125 23.078125 113.414062 22.542969 111.300781 23.796875 C 110.484375 24.28125 109.6875 25.03125 108.945312 25.902344 C 106.433594 27.734375 101.582031 28.472656 100.296875 31.507812 C 99.445312 33.507812 101.703125 38.484375 104.199219 39.828125 C 104.0625 41.734375 104.367188 44.199219 105.984375 42.179688 C 106.570312 41.449219 107.273438 40.082031 107.746094 38.851562 C 108.402344 41.640625 106.886719 44.816406 106.890625 47.726562 C 106.894531 50.464844 107.421875 52.667969 107.980469 55.015625 C 107.347656 56.921875 106.40625 58.8125 105.566406 60.53125 C 104.238281 63.261719 103.734375 65.058594 104.289062 67.460938 C 102.285156 67.8125 99.90625 68.773438 98.964844 69.226562 C 96.722656 70.308594 94.96875 72.035156 93.371094 73.832031 C 89.914062 77.71875 87.070312 82.148438 83.398438 85.816406 C 83.136719 86.078125 82.851562 86.332031 82.554688 86.574219 C 81.347656 85.328125 80.390625 83.121094 79.789062 81.765625 C 78.632812 79.148438 78.363281 76.394531 78.222656 73.507812 C 77.949219 67.707031 76.789062 63.488281 73.523438 58.6875 C 72.074219 56.5625 70.171875 55.339844 68.207031 53.625 C 66.199219 51.882812 64.644531 50.101562 62.460938 48.675781 C 57.984375 45.738281 51.863281 44.363281 47.230469 48.042969 C 45.1875 49.664062 43.824219 52.128906 43.863281 54.578125 C 43.90625 57.523438 46.234375 58.0625 48.695312 57.726562 C 50.222656 60.730469 54.1875 60.433594 56.8125 58.308594 C 58.757812 59.546875 59.875 62.832031 61.351562 64.886719 C 60.578125 66.640625 62.171875 68.707031 63.792969 70.25 C 63.773438 72.664062 63.800781 74.808594 64.886719 76.980469 C 66.199219 79.597656 66.898438 81.675781 67.203125 84.507812 C 67.515625 87.410156 67.625 90.375 67.929688 93.207031 C 68.085938 94.621094 67.992188 96.03125 68.160156 97.488281 C 68.320312 98.84375 68.941406 100.078125 69.15625 101.417969 C 69.574219 104.058594 68.453125 107.613281 70.296875 109.886719 C 72.054688 112.054688 75.058594 112.21875 77.464844 111.730469 C 83.070312 110.609375 88.84375 109.257812 94.542969 110.511719 C 94.578125 110.519531 94.613281 110.527344 94.644531 110.539062 C 95.371094 112.300781 95.515625 114.863281 95.648438 116.277344 C 95.921875 119.21875 95.640625 122.0625 95.488281 124.886719 C 95.183594 130.6875 96.347656 136.480469 97.203125 142.023438 C 97.621094 144.699219 98.15625 146.976562 99.195312 149.105469 C 94.988281 150.519531 90.21875 155.222656 89.621094 158.792969 C 88.632812 164.691406 90.816406 169.105469 93.75 173.9375 C 95.765625 177.257812 98.53125 180.867188 102.480469 182.386719 C 100.304688 182.777344 98.019531 182.925781 96.210938 181.925781 C 94.289062 180.855469 91.894531 180.054688 90.945312 182.960938 C 89.613281 187.042969 97.292969 187.785156 101.820312 188.046875 C 100.203125 189.4375 99.304688 192.148438 99.484375 193.953125 C 99.644531 195.558594 102.171875 198.40625 103.679688 196.664062 C 104.980469 198.265625 108.058594 198.34375 109.054688 196.789062 C 111.703125 198.832031 114.257812 194.980469 115.957031 193.550781 C 117.472656 192.269531 122.152344 192.074219 122.023438 189.640625 C 122.90625 190.808594 124.734375 191.359375 126.015625 190.65625 Z M 126.015625 190.65625 " fill-opacity="1" fill-rule="nonzero"/></g></svg>
